X:1
T:Piano Étude after Paganini's 5th Caprice
T:Piano Étude after Paganini's 5th Caprice
T:Op. 3, No. 1
T:Robert Schumann
C:Robert Schumann
%%score { ( 1 4 ) | ( 2 3 5 6 ) }
L:1/8
Q:1/4=110
M:none
K:C
V:1 treble nm="Piano" snm="Pno."
V:4 treble 
V:2 bass 
V:3 bass 
V:5 bass 
V:6 bass 
V:1
[I:staff +1] !fermata!A,,2 (C,/4E,/4A,/4C/4!<(![I:staff -1]E/4A/4c/4!<)!e/4 !fermata!a2)!>(! (20:16:20(g/4f/4e/4d/4c/4B/4A/4^G/4F/4E/4D/4[I:staff +1]C/4B,/4A,/4=G,/4F,/4E,/4D,/4C,/4B,,/4!>)! !fermata!A,,2) (9:8:9C,/4E,/4A,/4C/4!<(![I:staff -1]E/4A/4c/4!<)!e/4a/4 !fermata!c'2 | %1
 (22:16:22b/4a/4^g/4f/4e/4d/4c/4B/4A/4=G/4F/4 E/4D/4!>(![I:staff +1]C/4B,/4A,/4G,/4F,/4E,/4D,/4C,/4B,,/4 !fermata!A,,2!>)! (10:8:10C,/4E,/4A,/4C/4[I:staff -1]E/4A/4c/4e/4a/4c'/4 !fermata!e'2 d'/4c'/4b/4a/4^g/4f/4e/4d/4c/4B/4A/4=G/4F/4E/4D/4!>(![I:staff +1]C/4B,/4A,/4^G,/4F,/4E,/4D,/4C,/4B,,/4!>)! | %2
 !fermata!A,,2 (11:8:11C,/4E,/4A,/4C/4[I:staff -1]E/4A/4c/4e/4a/4c'/4e'/4!>(! !fermata!a'2 (27:24:27=g'/4f'/4e'/4d'/4c'/4b/4a/4g/4f/4e/4d/4c/4B/4A/4^G/4F/4E/4D/4[I:staff +1]C/4B,/4A,/4=G,/4F,/4E,/4D,/4C,/4B,,/4 !fermata!A,,2!>)! | %3
!<(! _B,,/4=B,,/4C,/4^C,/4D,/4^D,/4E,/4F,/4^F,/4G,/4^G,/4A,/4_B,/4=B,/4=C/4^C/4=D/4^D/4E/4F/4^F/4G/4^G/4!<)!!>(! A/4G/4=G/4F/4=F/4E/4D/4=D/4C/4=C/4B,/4_B,/4A,/4G,/4=G,/4F,/4=F,/4E,/4_E,/4=D,/4C,/4=C,/4B,,/4_B,,/4!>)! (!fermata!A,,2[I:staff -1] !arpeggio![Aca]) !fermata!z |: %4
[M:4/4][Q:1/4=150]"^Agitato"!mf! (.A,/.C/.E/.C/) (.B,/.D/.E/.D/) (C/A/=G/F/ E/D/C/B,/) | %5
 (.A,/.C/.E/.C/) (.B,/.D/.E/.D/) (C/A/=G/F/ E/D/C/B,/) | %6
 (A,/^C/E/C/ A,/D/F/D/ G,/B,/F/B,/ G,/=C/E/C/ | %7
!p!!>(! ^G,/B,/F/D/ C/A,/A/^D/)!>)!!<(! (E/^G/B/e/ ^g/b/=d'/e'/)!<)! |!f! A2 B2 c2 x2 | %9
 A2 B2 c2 x2 | A2 (a2 x4 | =c/B/A/G/!>(! ^F/G/A/=F/)!>)! (E/G/c/E/x/F/B/D/ | %12
 C/E/=A/C/x/D/G/B,/ A,/C/F/A,/x/C/F/_A,/) | %13
x/B,/F/B,/ !>!C/=E/G/c/ !>!D/F/B/d/"_cresc." !>!E/G/c/e/ | !>!F/A/c/f/x/^d/c/A/x/g/e/c/x/=f/=d/B/ | %15
!f! x2 x ef x x ^d | e x x ^cd x x B |!f!!>(!c x x2!>)!!<(! x4!<)! |!ff! c'/g/e/c/ z2 b/g/d/B/ z2 | %19
 z/ (c'/b/_b/ a/_a/"_dim."g/_g/ f/e/_e/d/ _d/c/=B/_B/ | %20
!f! .A/._A/.G/._G/ .F/.E/._E/.D/!<(! C/)=E/=A/=G/!<)! =B,/G/=F/D/ | %21
 C/E/G,/!<(!C/ B,/G/F/D/!<)! C/E/G,/!<(!C/ B,/G/F/D/!<)! |1 %22
 C/E/!>(!D/C/ B,/F/D/B,/ A,/C/B,/A,/ ^G,/D/B,/G,/!>)! :|2 %23
"^tutto legato"x/G/E/C/!>(!x/G/E/_B,/x/F/C/A,/x/E/B,/G,/!>)! || %24
 A,/f/c/A/!p!x/!<(!e/^c/G/x/d/A/F/x/c/G/E/!<)! |x/d/A/F/x/c/A/_E/!>(!x/_B/F/D/x/A/E/C/!>)! | %26
!f! D/_b/f/d/x/a/^f/c/x/g/d/_B/x/f/c/A/ |x/g/d/_B/x/=f/d/_A/x/_e/B/G/x/d/A/F/ | %28
x2!f!x/d'/=b/f/x/c'/g/_e/x/b/f/d/ | (c/c'/b/_b/ a/_a/g/_g/ f/e/_e/d/"_dim." _d/c/B/_B/ | %30
!f! A/_A/G/_G/ F/E/_E/D/ C/)_E/_A/=G/ =B,/G/=F/D/ | %31
 .C/!p! (_a/g/_g/ f/=e/_e/=d/ _d/c/_c/_B/"_dim." =A/_A/=G/_G/ | %32
 F/=E/_E/D/ _D/C/_C/_B,/ _A,/)=C/=F/E/ G,/E/_D/B,/ | %33
!mf! _A,/_A/_E/C/ =A,/_G/E/C/ _B,/_B/F/_D/ =B,/A/F/=D/ | %34
 C/c/G/_E/ _D/_B/G/D/"_cresc." (_B,/G/=E/c/ G/e/c/_b/ | %35
 _a/f/c/_A/)!f! =E/F/A/F/ _E/_D/ z =A/_B/_d/B/ | %36
 _A/G/ z (=d/_e/g/e/ _a/e/c/!>(!A/ !>!G/A/_G/_E/!>)! | %37
!mf! _D/)F/_A/F/!<(! _E/_G/A/G/!<)! F/!<(!_d/c/_B/ A/G/F/E/!<)! | %38
!<(! _D/F/_A/F/ D/A/_c/A/!<)!!>(! =D/A/c/A/ _E/_G/_B/G/!>)! | %39
!mf! _E/!<(!=G/_B/G/ F/_A/B/A/!<)!!<(! G/_e/d/c/ B/A/G/F/!<)! | %40
!<(! _E/G/_B/G/ E/B/_d/B/!<)!!>(! =E/B/d/B/ F/_A/c/A/!>)! | %41
!p! _G/_e/c/G/ F/f/_d/"_cresc."_B/ _A/f/=d/A/ G/_g/e/B/ | %42
!f! ^F/=e/^c/^A/ F/E/^C/^A,/ =B,/^D/F/B/ ^d/^f/b/B/ | %43
!p! _E/_d/_B/G/ E/_D/_B,/G,/!<(! _A,/_C/E/_A/ _c/_e/_a/_c'/!<)! | %44
 z/!mf! ^G/=B/G/ ^F/A/B/A/ G/B/e/B/ A/=c/e/c/ | %45
 ^A/^c/^f/c/ B/^d/f/d/"_cresc." ^B/d/^g/d/ c/e/g/e/ | %46
 ^d/^f/b/f/ e/^g/b/g/!f! ^c/=g/^a/g/ B/"_sopra"f/b/f/ | %47
!>(! B/=f/^g/!>)!f/ A/e/a/!>(!e/ A/_e/^f/!>)!e/ =G/d/=g/d/ | %48
!>(! G/_d/=e/d/!>)! F/c/f/c/ ^F/c/=d/c/ E/B/e/B/ | %49
!>(! E/_B/^c/B/ D/A/d/!>)!A/!<(! D/A/d/A/ ^D/A/^d/A/!<)! | %50
 (E/^G/B/e/ ^g/b/e'/^g'/)!f! d/a/d'/a/!<(! ^d/a/^d'/a/ | x4!8va(!!<)!!ff! a2!8va)! b2 | %52
!8va(! x4 a2 b2 | x2 x ^c'd' x x b |!f! c' x x ab x x ^g!8va)! | a x x2 x4 | %56
!ff! c'/a/e/c/ A/E/ z b/^g/=d/B/ ^G/D/ z | z/!p! (a/^g/=g/ ^f/=f/e/^d/ =d/^c/=c/B/ _B/A/^G/=G/ | %58
!>(! ^F/=F/E/^D/ =D/^C/=C/B,/)!>)! A,/C/F/E/ ^G,/E/D/B,/ | %59
!<(![I:staff +1] A,/C/B,/D/ C/E/^G,/B,/!<)!!<(! A,/C/B,/D/ C/E/G,/B,/!<)! | %60
!f! A,/!<(!C/B,/D/ C/E/^G,/B,/!<)!!<(! A,/C/B,/D/ C/E/G,/B,/!<)! || %61
[K:A][Q:1/4=110] !fermata!A,,2 (C,/4E,/4A,/4C/4[I:staff -1]E/4A/4c/4e/4 !fermata!a2)!<(! (20:16:20g/4f/4e/4d/4c/4B/4A/4G/4F/4E/4D/4[I:staff +1]C/4B,/4A,/4G,/4F,/4E,/4D,/4C,/4B,,/4!<)! !fermata!A,,2 (9:8:9C,/4E,/4A,/4C/4[I:staff -1]E/4A/4c/4e/4a/4 !fermata!c'2 | %62
 (22:16:22b/4a/4g/4f/4e/4d/4c/4B/4A/4G/4F/4 E/4D/4[I:staff +1]C/4B,/4A,/4G,/4F,/4E,/4D,/4C,/4B,,/4 !fermata!A,,2 (10:8:10C,/4E,/4A,/4C/4[I:staff -1]E/4A/4c/4e/4a/4c'/4 !fermata!e'2 d'/4c'/4b/4a/4g/4f/4e/4d/4c/4B/4A/4G/4F/4E/4D/4[I:staff +1]C/4B,/4A,/4G,/4F,/4E,/4D,/4C,/4B,,/4 | %63
 !fermata!A,,2 (11:8:11C,/4E,/4A,/4C/4[I:staff -1]E/4A/4c/4e/4a/4c'/4e'/4 !fermata!a'2 (27:24:27g'/4f'/4e'/4d'/4c'/4b/4a/4g/4f/4e/4d/4c/4B/4A/4G/4F/4E/4D/4[I:staff +1]C/4B,/4A,/4G,/4F,/4E,/4D,/4C,/4B,,/4 !fermata!A,,2 | %64
!<(! _B,,/4=B,,/4=C,/4^C,/4D,/4^D,/4E,/4=F,/4^F,/4=G,/4^G,/4A,/4_B,/4=B,/4=C/4^C/4=D/4^D/4E/4=F/4^F/4=G/4^G/4!<)!!>(! A/4G/4=G/4F/4=F/4E/4D/4=D/4C/4=C/4B,/4_B,/4A,/4G,/4=G,/4F,/4=F,/4E,/4_E,/4=D,/4C,/4=C,/4B,,/4_B,,/4!>)! (!fermata!A,,2[I:staff -1] [Aca]) !fermata!z |] %65
V:2
 !fermata!A,,,2 (C,,/4E,,/4A,,/4C,/4E,/4A,/4C/4[I:staff -1]E/4 A2) (20:16:20(G/4F/4E/4D/4[I:staff +1]C/4B,/4A,/4^G,/4F,/4E,/4D,/4C,/4B,,/4A,,/4=G,,/4F,,/4E,,/4D,,/4C,,/4B,,,/4 A,,,2) (9:8:9C,,/4E,,/4A,,/4C,/4E,/4A,/4C/4[I:staff -1]E/4A/4 c2 | %1
 (22:16:22B/4A/4^G/4F/4E/4D/4C/4[I:staff +1]B,/4A,/4=G,/4F,/4 E,/4D,/4C,/4B,,/4A,,/4G,,/4F,,/4E,,/4D,,/4C,,/4B,,,/4 A,,,2 (10:8:10C,,/4E,,/4A,,/4C,/4E,/4A,/4C/4[I:staff -1]E/4A/4c/4 e2 d/4c/4B/4A/4^G/4F/4E/4D/4C/4B,/4A,/4[I:staff +1]=G,/4F,/4E,/4D,/4C,/4B,,/4A,,/4^G,,/4F,,/4E,,/4D,,/4C,,/4B,,,/4 | %2
 A,,,2 (11:8:11C,,/4E,,/4A,,/4C,/4E,/4A,/4C/4[I:staff -1]E/4A/4c/4e/4 a2 (27:24:27=g/4f/4e/4d/4c/4B/4A/4G/4F/4E/4D/4C/4[I:staff +1]B,/4A,/4^G,/4F,/4E,/4D,/4C,/4B,,/4A,,/4=G,,/4F,,/4E,,/4D,,/4C,,/4B,,,/4 A,,,2 | %3
 _B,,,/4=B,,,/4C,,/4^C,,/4D,,/4^D,,/4E,,/4F,,/4^F,,/4G,,/4^G,,/4A,,/4_B,,/4=B,,/4C,/4^C,/4D,/4^D,/4E,/4F,/4^F,/4G,/4^G,/4 A,/4G,/4=G,/4F,/4=F,/4E,/4D,/4=D,/4C,/4=C,/4B,,/4_B,,/4A,,/4G,,/4=G,,/4F,,/4=F,,/4E,,/4_E,,/4=D,,/4C,,/4=C,,/4B,,,/4_B,,,/4 A,,,2 !arpeggio![A,,E,A,] !fermata!z |: %4
[M:4/4]!p! A,,E,,^G,,E,, A,,E,,B,,E,, | A,,E,,^G,,E,, A,,E,,B,,E,, | A,,E,, A,,D,, G,,D,, E,,C,, | %7
 E,,B,,, C,,A,,, ^G,,E,=D,B,, | A,,C A,,^G, A,,A, A,,B, | A,,C A,,^G, A,,A, A,,B, | %10
 z/ E,/A,/E,/ z/ E,/A,/E,/ z/ A,/D/A,/ z/ A,/D/A,/ | %11
 z/ B,/F/B,/ A,/B,/C/D/!<(! C/D/^D/!<)! z/ G,G,, | %12
!<(! A,/^A,/B,/!<)! z/ E,E,,!<(! F,/G,/^G,/!<)! z/ F,_E,- | E, D,2 C,2 B,,2 _B,,- | %14
 B,,A,, C,D,/^D,/ E,G,,=D,G,, | C,2[K:treble] z !^![CG]-!>(! [CG][FA]c!>)!!^![B,^F]- | %16
!>(! [B,F][EG]_B!>)!!^![A,E]-!>(! [A,E][D=F]_A!>)!!^![G,D]- | [G,D][CE]G[B,D] C2 ^D2 | %18
 .E z[I:staff -1] G/E/C/G,/[I:staff +1] z2[I:staff -1] G/D/B,/G,/ | %19
 [CE][I:staff +1] z[K:bass]!<(! (D2!<)![I:staff -1] [CD=A]4) |[I:staff +1] D3 C A,^A, z ([G,,D,] | %21
 [C,E,]) z (!^![G,,D,]2 [C,E,]) z (!^![G,,D,]2 |1 .[C,E,]) z (D,2 E,2 E,,2) :|2 %23
{/x} .[C,E,] z _D,2 C,2 _B,,2 || A,, z ([^C,_B,]2 [D,A,]2 [E,G,]2 | .[D,A,]) z (_G,2 F,2 _E,2 | %26
 .D,) z ([^F,,_E,]2 [G,,D,]2 [A,,C,]2 | .[G,,D,]) z (_C,2 _B,,2 _A,,2 | %28
 .G,,) z ([=B,,,_A,,]2 [C,,G,,]2 [D,,F,,]2 | ._E,,) z"^dolce"!<(! (D2!<)![I:staff -1] [CD=A]4) | %30
[I:staff +1] D3 C =G, z ([G,,=F,]2 | .[C,_E,]) z!<(! _B,2!<)! !arpeggio![_A,B,F]4 | %32
 _B,3 _A, F,^F, z _E,, | _A,,_A,,, z/ (C,,/!>(!C,/_E,/ _D,_D,,)!>)! z/ (=D,,/!>(!=D,/F,/ | %34
 _E,_E,,)!>)! z/ (=E,,/!>(!=E,/F,/ G,C,_B,,!>)!G,, | %35
 F,,/)_A,,/C,/F,/ G,/_A,/C/A,/ =A,/_B,/[I:staff -1]C/_B,/ C/_D/F/D/ | %36
 D/_E/F/E/ ^F/G/E/_D/ C/E/!>!G/[I:staff +1] z/ z/ !>!_A,,/_B,,/C,/ | %37
!p! _D,_A,, A,,_B,,/C,/ D,A,, A,,B,,/C,/ | _D,_A,, _C,_G,, _B,,F,, B,,_E,, | %39
 _E,_B,, B,,=C,/D,/ E,B,, B,,C,/D,/ | _E,_B,, _D,_A,, C,G,, C, x | %41
 ._A,,([_A,C] ._D,)([A,_D] ._B,,)([_B,=D] ._E,).[B,_E] | %42
 (^F,,^A,^C,^F, =B,,).B,.^D[I:staff -1].^F | %43
!ped![I:staff +1] (_E,,=G,_B,,_E,!ped-up! _A,,)._A,._C[I:staff -1]._E | %44
 =E[I:staff +1]=B,^DB, E=D=C z | ^FE^D z ^GFE z |[I:staff -1] BA^GB ^c2 B2 | %47
 dD ^c^C =c=C[I:staff +1] z/"^sempre dimin."[I:staff -1] B,/D/B/ | %48
 _B_B, AA, AA,[I:staff +1] z/[I:staff -1] ^G,/B,/^G/ |[I:staff +1] x4 =F2 =C=B,/A,/ | %50
 ^G,2 z2[K:treble] f2 cB/A/ | ^G2 z2 x4 | .A,.[EA] .A,.[EB] .A,.[Ec] .A,.[E^G] | %53
 .A,.[EA] z (!^![Ae]- [Ae][df]_a)(!^![Gd]- | [Gd][ce]g)(!^![Fc]- [Fc][Bd]f)(!^![EB]- | %55
 [EB][Ac] eA/=G/ [^FAc]2)[K:bass] z z/ ^D/ | %56
 E2 x/[I:staff -1] E/C/A,/[I:staff +1] E2 x/[I:staff -1] D/B,/^G,/ | %57
 [A,C][I:staff +1] z!ped! B,2 x x/ x/!ped-up! x2 | B,3 A, F,G, z [E,,B,,] | %59
 [A,,C,]E,,/^G,,/ A,,/C,/B,,/D,/ C,/E,/E,,/G,,/ A,,/C,/B,,/D,/ | %60
 C,/E,/E,,/^G,,/ A,,/C,/B,,/D,/ C,/E,/E,,/G,,/ A,,/C,/B,,/D,/ || %61
[K:A] !fermata!A,,,2 (C,,/4E,,/4A,,/4C,/4E,/4A,/4C/4[I:staff -1]E/4 A2) (20:16:20G/4F/4E/4D/4"^cresc."[I:staff +1]C/4B,/4A,/4G,/4F,/4E,/4D,/4C,/4B,,/4A,,/4G,,/4F,,/4E,,/4D,,/4C,,/4B,,,/4 A,,,2 (9:8:9C,,/4E,,/4A,,/4C,/4E,/4A,/4C/4[I:staff -1]E/4A/4 c2 | %62
 (22:16:22B/4A/4G/4F/4E/4D/4C/4"^cresc."[I:staff +1]B,/4A,/4G,/4F,/4 E,/4D,/4C,/4B,,/4A,,/4G,,/4F,,/4E,,/4D,,/4C,,/4B,,,/4 A,,,2 (10:8:10C,,/4E,,/4A,,/4C,/4E,/4A,/4C/4[I:staff -1]E/4A/4c/4 e2 d/4c/4B/4A/4G/4F/4E/4D/4C/4B,/4A,/4"^cresc."[I:staff +1]G,/4F,/4E,/4D,/4C,/4B,,/4A,,/4G,,/4F,,/4E,,/4D,,/4C,,/4B,,,/4 | %63
 A,,,2 (11:8:11C,,/4E,,/4A,,/4C,/4E,/4A,/4C/4[I:staff -1]E/4A/4c/4e/4 a2 (27:24:27g/4f/4e/4d/4c/4B/4A/4G/4F/4E/4D/4C/4"^cresc."[I:staff +1]B,/4A,/4G,/4F,/4E,/4D,/4C,/4B,,/4A,,/4G,,/4F,,/4E,,/4D,,/4C,,/4B,,,/4 A,,,2 | %64
 _B,,,/4=B,,,/4=C,,/4^C,,/4D,,/4^D,,/4E,,/4=F,,/4^F,,/4=G,,/4^G,,/4A,,/4_B,,/4=B,,/4=C,/4^C,/4D,/4^D,/4E,/4=F,/4^F,/4=G,/4^G,/4 A,/4G,/4=G,/4F,/4=F,/4E,/4D,/4=D,/4C,/4=C,/4B,,/4_B,,/4A,,/4G,,/4=G,,/4F,,/4=F,,/4E,,/4_E,,/4=D,,/4C,,/4=C,,/4B,,,/4_B,,,/4 A,,,2 [A,,E,A,] !fermata!z |] %65
V:3
 x15 | x241/15 | x671/48 | x63/4 |: %4
[M:4/4] A,,/E,/E,,/E,/ ^G,,/E,/E,,/E,/ A,,/E,/E,,/E,/ B,,/E,/E,,/E,/ | %5
 A,,/E,/E,,/E,/ ^G,,/E,/E,,/E,/ A,,/E,/E,,/E,/ B,,/E,/E,,/E,/ | %6
 A,,/E,/E,,/E,/ A,,/D,/D,,/D,/ G,,/D,/D,,/D,/ E,,/C,/C,,/C,/ | %7
 E,,/B,,/B,,,/B,,/ C,,/A,,/A,,,/A,,/ E,,4 | %8
 A,,/E,/C/E,/ A,,/E,/^G,/E,/ A,,/E,/A,/E,/ A,,/E,/B,/E,/ | %9
 A,,/E,/C/E,/ A,,/E,/^G,/E,/ A,,/E,/A,/E,/ A,,/E,/B,/E,/ | !>!A,,2 !>!^C,2 !>!D,2 !>!F,2 | %11
 !>!G,4 x4 | x8 | x8 | x8 | x2[K:treble] x6 | x8 | x4 A,4 | .G, x x2 x4 | x2[K:bass] D,6 | %20
 [F,C]3 [^F,=A,-] G,2 x x | x8 |1 x8 :|2 x2 C,,6- || C,, z A,,6- | A,, z F,,6- | F,, z D,,6- | %27
 D,, z _B,,,6- | B,,, z (G,,,6 | C,,) z D,6 | [F,C]3 [^F,=A,] x4 | x2 _D,6 | %32
 [_D,_A,]3 [=D,F,] _E,2 x2 | x8 | x8 | x8 | x8 | %37
 _D,/_A,/_A,,/A,/ A,,/A,/_B,,/C,/ D,/A,/A,,/A,/ A,,/A,/B,,/C,/ | %38
 _D,/_A,/_A,,/A,/ _C,/A,/_G,,/A,/ _B,,/F,/F,,/F,/ B,,/_G,/_E,,/G,/ | %39
 _E,/_B,/_B,,/B,/ B,,/B,/C,/D,/ E,/B,/B,,/B,/ B,,/B,/C,/D,/ | %40
 _E,/_B,/_B,,/B,/ _D,/B,/_A,,/B,/ C,/G,/G,,/G,/ C,/_A,/F,,/ z/ | x8 | x8 | x8 | %44
 z E,2 E,- E,E,A,=G, | z ^F,B,=A, z ^G,^C^A, | z B,[I:staff -1]E[I:staff +1] x x4 | x8 | x8 | %49
[I:staff -1] =GG, ^F^F,[I:staff +1] z =F,3 | E,2 x2[K:treble] z F3 | E(E=DB, .A,).[Ec].A,.[E^G] | %52
 x8 | x8 | x8 | x6[K:bass] x2 | [E,A,C]3 x [E,^G,B,]3 x | x2 D,6 | [D,A,]3 [^D,^F,-] E,2 x x | x8 | %60
 x8 ||[K:A] x15 | x241/15 | x671/48 | x63/4 |] %65
V:4
 x15 | x241/15 | x671/48 | x63/4 |:[M:4/4] x8 | x8 | A,2 A,2 G,2 G,2 | x8 | %8
 A/c/e/c/ B/d/e/d/ c/a/=g/f/ e/d/c/B/ | A/c/e/c/ B/d/e/d/ c/a/=g/f/ e/d/c/B/ | %10
 A/^c/e/c/ a/g/f/e/ c/d/b/a/"_dim." g/f/e/d/ | x4 Ez/E/ D>D | Cz/C/ B,>B, A,z/A,/ _A,>A, | %13
 G,>B, C2 D2 E2 | F2 ^F>A G>c G>B | c/!<(!c'/b/a/ g/f/e/c/!<)! f/!<(!b/a/g/ f/e/^d/B/!<)! | %16
 e/!<(!a/g/=f/ e/d/^c/A/!<)! d/!<(!g/f/e/ d/=c/B/G/!<)! | %17
 c/f/e/d/ c/B/=A/G/ (^F/A/c/^d/ ^f/a/c'/f/) | x8 | x8 | x4 C2 B,2 | CG, B,2 CG, B,2 |1 x8 :|2 %23
 C>C _B,>B, A,>A, G,>G, || x2 G>G F>F E>E | F>F _E>E D>D C>C | x2 c>c _B>B A>A | %27
 _B>B _A>A G>G F>F | G/_e'/_b/g/ f>f _e>e d>d | x8 | x4 C2 B,2 | x8 | x4 _A,2 G,2 | %33
 _A,2 =A,2 _B,2 =B,2 | x8 | x8 | x8 | _D2 _E2 F2 x2 | _D2 D2 =D2 _E2 | _E2 F2 G2 x2 | %40
 _E2 E2 =E2 F2 | x8 | x8 | x8 | x8 | ^A z B2 ^B z ^c2 | ^d x x2 eE z/ ^D/^F/d/ | B2 A2 A2 G2 | %48
 G2 F2 ^F2 E2 | E2 D2 D2 ^D2 | x4 d2 ^d2 | %51
 e/^g/b/e'/!8va(! ^g'/b'/e''/e'/!8va)! a/c'/e'/c'/ b/d'/e'/d'/ | %52
!8va(! c'/a'/=g'/f'/ e'/d'/c'/b/ a/c'/e'/c'/ b/d'/e'/d'/ | %53
 c'/a'/=g'/f'/ e'/d'/^c'/a/ d'/g'/f'/e'/ d'/=c'/b/g/ | %54
 c'/f'/e'/d'/ c'/b/a/f/ b/e'/d'/c'/ b/a/^g/e/!8va)! | a/d'/c'/b/ a/=g/f/e/ ^d/c'/a/^f/ d/c/A/ z/ | %56
 x8 | x8 | x4 A,2 ^G,2 | x8 | x8 ||[K:A] x15 | x241/15 | x671/48 | x63/4 |] %65
V:5
 x15 | x241/15 | x671/48 | x63/4 |:[M:4/4] x8 | x8 | x8 | x8 | x8 | x8 | x8 | x8 | x8 | x8 | x8 | %15
 x2[K:treble] x6 | x8 | x8 | x8 | x2[K:bass] !arpeggio!C2 x4 | x8 | x8 |1 x8 :|2 x8 || x8 | x8 | %26
 x8 | x8 | x8 | x2 C2 x4 | x8 | x2 !arpeggio!_A,2 x4 | x8 | x8 | x8 | x8 | x8 | x8 | x8 | x8 | x8 | %41
 x8 | x8 | x8 | x8 | x8 | x8 | x8 | x8 | x8 | x4[K:treble] x4 | x8 | x8 | x8 | x8 | x6[K:bass] x2 | %56
 x8 | x8 | x8 | x8 | x8 ||[K:A] x15 | x241/15 | x671/48 | x63/4 |] %65
V:6
 x15 | x241/15 | x671/48 | x63/4 |:[M:4/4] x8 | x8 | x8 | x8 | x8 | x8 | x8 | x8 | x8 | x8 | x8 | %15
 x2[K:treble] x6 | x8 | x8 | x8 | x2[K:bass] x6 | x8 | x8 |1 x8 :|2 x8 || x8 | x8 | x8 | x8 | x8 | %29
 x8 | x8 | x8 | x8 | x8 | x8 | x8 | x8 | x8 | x8 | x8 | x8 | x8 | x8 | x8 | x8 | x8 | x8 | x8 | %48
 x8 | x8 | x4[K:treble] x4 | x8 | x8 | x8 | x8 | x6[K:bass] x2 | x8 | z2 A,2 !arpeggio![A,B,F]4 | %58
 x8 | x8 | x8 ||[K:A] x15 | x241/15 | x671/48 | x63/4 |] %65

